dist/icons/svgs/street-view-outline.svg

<svg xmlns="http://www.w3.org/2000/svg" width="24" height="24" fill="currentcolor" class="icon-street-view-outline" viewBox="0 0 24 24">
  <path d="M12 3.875C11.4531 3.875 11.0625 4.30469 11.0625 4.8125C11.0625 5.35938 11.4531 5.75 12 5.75C12.5078 5.75 12.9375 5.35938 12.9375 4.8125C12.9375 4.30469 12.5078 3.875 12 3.875ZM12 7.625C10.9844 7.625 10.0469 7.11719 9.53906 6.21875C9.03125 5.35938 9.03125 4.30469 9.53906 3.40625C10.0469 2.54688 10.9844 2 12 2C12.9766 2 13.9141 2.54688 14.4219 3.40625C14.9297 4.30469 14.9297 5.35938 14.4219 6.21875C13.9141 7.11719 12.9766 7.625 12 7.625ZM9.5 12.9375V12.9766C10.2422 13.1328 10.7891 13.7969 10.9062 14.5781L11.1406 16.7266C11.1406 16.8828 11.2969 17 11.4531 17H12.5078C12.6641 17 12.8203 16.8828 12.8203 16.7266L13.0938 14.5781C13.1719 13.7969 13.7188 13.1328 14.5 12.9375V11.375C14.5 10.7109 13.9141 10.125 13.25 10.125H10.75C10.0469 10.125 9.5 10.7109 9.5 11.375V12.9375ZM9.26562 16.9609L9.03125 14.7734C8.21094 14.5781 7.625 13.8359 7.625 12.9375V11.375C7.625 9.65625 8.99219 8.25 10.75 8.25H13.25C14.9688 8.25 16.375 9.65625 16.375 11.375V12.9375C16.375 13.8359 15.75 14.5781 14.9297 14.7734L14.6953 16.9609C14.5781 18.0547 13.6406 18.875 12.5078 18.875H11.4531C10.3203 18.875 9.38281 18.0547 9.26562 16.9609ZM7.15625 17.4297C5.98438 17.625 5.04688 17.8984 4.46094 18.2109C4.34375 18.2891 4.22656 18.3281 4.14844 18.4062C3.99219 18.4844 3.99219 18.6797 4.14844 18.7578C4.5 18.9922 5.04688 19.2266 5.82812 19.4609C7.35156 19.8516 9.53906 20.125 12 20.125C14.4219 20.125 16.6094 19.8516 18.1328 19.4609C18.9141 19.2266 19.4609 18.9922 19.8125 18.7578C19.9688 18.6797 19.9688 18.4844 19.8125 18.4062C19.7344 18.3281 19.6172 18.2891 19.5 18.2109C18.9141 17.8984 17.9766 17.625 16.8047 17.4297C16.2969 17.3125 15.9453 16.8438 16.0625 16.3359C16.1406 15.8281 16.6484 15.4766 17.1562 15.5547C18.4062 15.7891 19.5391 16.1406 20.3594 16.5312C20.75 16.7656 21.1406 17 21.4141 17.3125C21.7266 17.625 21.9609 18.0547 21.9609 18.5625C21.9609 19.4219 21.375 20.0078 20.8281 20.3203C20.2812 20.7109 19.5 21.0234 18.6406 21.2578C16.8828 21.7266 14.5391 22 12 22C9.42188 22 7.07812 21.7266 5.32031 21.2578C4.46094 21.0234 3.67969 20.7109 3.13281 20.3203C2.58594 20.0078 2 19.4219 2 18.5625C2 18.0547 2.23438 17.625 2.50781 17.3125C2.82031 17 3.21094 16.7656 3.60156 16.5312C4.42188 16.1406 5.55469 15.7891 6.80469 15.5547C7.3125 15.4766 7.82031 15.8281 7.89844 16.3359C8.01562 16.8438 7.66406 17.3125 7.15625 17.4297Z"/>
</svg>

<svg xmlns="http://www.w3.org/2000/svg" width="24" height="24" fill="currentColor" class="icon-street-view-outline" viewBox="0 0 24 24">
  <path d="M12 3.875a.925.925 0 0 0-.937.938c0 .546.39.937.937.937.508 0 .938-.39.938-.937A.95.95 0 0 0 12 3.875m0 3.75c-1.016 0-1.953-.508-2.46-1.406-.509-.86-.509-1.914 0-2.813A2.87 2.87 0 0 1 12 2c.977 0 1.914.547 2.422 1.406.508.899.508 1.953 0 2.813A2.77 2.77 0 0 1 12 7.625m-2.5 5.313v.039c.742.156 1.29.82 1.406 1.601l.235 2.149c0 .156.156.273.312.273h1.055c.156 0 .312-.117.312-.273l.274-2.149a1.87 1.87 0 0 1 1.406-1.64v-1.563c0-.664-.586-1.25-1.25-1.25h-2.5c-.703 0-1.25.586-1.25 1.25zm-.234 4.023-.235-2.188c-.82-.195-1.406-.937-1.406-1.835v-1.563A3.11 3.11 0 0 1 10.75 8.25h2.5a3.134 3.134 0 0 1 3.125 3.125v1.563c0 .898-.625 1.64-1.445 1.835l-.235 2.188c-.117 1.094-1.054 1.914-2.187 1.914h-1.055c-1.133 0-2.07-.82-2.187-1.914m-2.11.469c-1.172.195-2.11.468-2.695.78-.117.08-.234.118-.313.196-.156.078-.156.274 0 .352.352.234.899.469 1.68.703 1.524.39 3.711.664 6.172.664 2.422 0 4.61-.273 6.133-.664.781-.234 1.328-.469 1.68-.703.156-.078.156-.274 0-.352-.079-.078-.196-.117-.313-.195-.586-.313-1.523-.586-2.695-.781-.508-.117-.86-.586-.742-1.094.078-.508.585-.86 1.093-.781 1.25.234 2.383.586 3.203.976.391.235.782.469 1.055.782.313.312.547.742.547 1.25 0 .859-.586 1.445-1.133 1.757-.547.39-1.328.703-2.187.938-1.758.469-4.102.742-6.641.742-2.578 0-4.922-.273-6.68-.742-.86-.235-1.64-.547-2.187-.938C2.586 20.008 2 19.422 2 18.562c0-.507.234-.937.508-1.25.312-.312.703-.546 1.094-.78.82-.391 1.953-.743 3.203-.977.508-.078 1.015.273 1.093.78.118.509-.234.977-.742 1.095"/>
</svg>
